X:1
T:Title
%%score { ( 1 3 ) | ( 2 4 5 ) }
L:1/8
M:6/8
K:Bb
V:1 treble nm="Grand Piano"
V:3 treble 
V:2 bass 
V:4 bass 
V:5 bass 
V:1
 z3 z2[Q:1/4=95] [DF] | [Fd]2 [DB] [DF]2 D | F E2- E2 E | c2 A G2 A |[M:5/8] [DB]-[DB]- [DB]3 | %5
[M:1/8] [DF] |[M:3/4] [Fd]2 [DB] [DF]2 D | FE- E3 E | c2 A G2 A |[M:5/8] [DB]-[DB]- [DB]3 | %10
[M:1/8] [DB] |[M:3/4] B2 G B2 G | [EG][DF]- [DF]3 F | c2 F c2 _d |[M:5/8] [Fd]-[Fd]- [Fd]3 | %15
[M:1/8] [^Fc] |[M:3/4] [GB]2 [EG] [GB]2 [EG] | [EG][DF]- [DF]3 [DF] | [C=E]2 [EG] [Ec]2 E | %19
[M:5/8] F-F- F3 |[M:1/8] F |[M:3/4] [Bd]2 [Ad] [Gd]2 [^Fd] | [Fd][DB]- [DB]3 [DF] | %23
 [Fd]2 [DB]G AB | A6 | [ce]2 [Be] [Ae]2 e | z A- A3 z | FA B c2 _d |[M:5/8] d2- [Fd-] [Fd]2 | %29
[M:1/8] F |[M:3/4] [Bd]2 [Ad] [Gd]2 [^Fd] | [Fd][DB]- [DB]3 [DF] | [Fd]2 [DB]G AB | A6 | %34
 [ce]2 [Be] [Ae]2 e | z A- A3 z | F2 F G2 A |[M:5/8] [DB]-[DB]- [DB]3 |] %38
V:2
 z3 z2 [B,,B,] | [B,,B,]2 [B,,F,] [B,,B,]2 [B,,B,] | [C,A,D] [C,A,C]2- [C,A,C]2 [F,A,C] | %3
 [F,A,E]2 [F,CE] [F,A,E]2 [F,E] |[M:5/8] [B,,F,]-[B,,F,]- [B,,F,]3 |[M:1/8] [B,,B,] | %6
[M:3/4] [B,,B,]2 [B,,F,] [B,,B,]2 [B,,B,] | [C,A,D][C,A,C]- [C,A,C]3 [F,A,C] | %8
 [F,A,E]2 [F,CE] [F,A,E]2 [F,E] |[M:5/8] [B,,F,]-[B,,F,]- [B,,F,]3 |[M:1/8] [B,,B,] | %11
[M:3/4] [E,G,E]2 [E,B,E] [E,G,E]2 [E,B,E] | [B,,B,][B,,B,]- [B,,B,]3 [D,B,] | %13
 [F,A,E]2 [F,A,E] [F,A,E]2 [F,G,=E] |[M:5/8] [B,,B,]-[B,,B,]- [B,,B,]3 |[M:1/8] [D,B,] | %16
[M:3/4] [E,B,]2 [E,B,] [E,B,]2 [E,B,] | [B,,B,][B,,B,]- [B,,B,]3 [B,,B,] | %18
 [C,B,]2 [C,B,] [C,G,]2 [C,B,C] |[M:5/8] [A,C]2 B, C2 |[M:1/8] F, | %21
[M:3/4] [B,,F,]2 [B,,F,] [B,,B,]2 [B,,B,] | [B,,B,][B,,F,]- [B,,F,]3 [B,,B,] | [B,,B,]3 [B,,B,]3 | %24
 [F,CE]2 [F,C] [F,C]2 [F,A,] | [F,A,]4 z[K:treble] G | z F- F3[K:bass] z | [F,A,E]3 E2 =E | %28
[M:5/8] [B,,B,]2 [B,,B,] [B,,B,]2 |[M:1/8] F, |[M:3/4] [B,,F,]2 [B,,F,] [B,,B,]2 [B,,B,] | %31
 [B,,B,][B,,F,]- [B,,F,]3 [B,,B,] | [B,,B,]3 [B,,B,]3 | [F,CE]2 [F,C] [F,C]2 [F,A,] | %34
 [F,A,]4 z[K:treble] G | z F- F3[K:bass] z | [F,A,E]2 [F,A,E] [F,A,E]2 [F,E] | %37
[M:5/8] [B,,F,]-[B,,F,]- [B,,F,]3 |] %38
V:3
 x6 | x6 | x6 | x6 |[M:5/8] x5 |[M:1/8] x |[M:3/4] x6 | x6 | x6 |[M:5/8] x5 |[M:1/8] x | %11
[M:3/4] x6 | x6 | x6 |[M:5/8] x5 |[M:1/8] x |[M:3/4] x6 | x6 | x6 |[M:5/8] z2 D E2 |[M:1/8] x | %21
[M:3/4] x6 | x6 | z2 z D3 | z2 E E2 F | x6 | .e2 CC CG | x6 |[M:5/8] F2 z z2 |[M:1/8] x | %30
[M:3/4] x6 | x6 | z2 z D3 | z2 E E2 F | x6 | .e2 CC CG | x6 |[M:5/8] x5 |] %38
V:4
 x6 | x6 | x6 | x6 |[M:5/8] x5 |[M:1/8] x |[M:3/4] x6 | x6 | x6 |[M:5/8] x5 |[M:1/8] x | %11
[M:3/4] x6 | x6 | x6 |[M:5/8] x5 |[M:1/8] x |[M:3/4] x6 | x6 | x6 |[M:5/8] F,-F,- F,3 |[M:1/8] x | %21
[M:3/4] x6 | x6 | x6 | x6 | z2 z [F,C]3[K:treble] | .F2 F,[K:bass]F, F,[F,CE] | z2 z [F,A,]3 | %28
[M:5/8] x5 |[M:1/8] x |[M:3/4] x6 | x6 | x6 | x6 | z2 z [F,C]3[K:treble] | %35
 .F2 F,[K:bass]F, F,[F,CE] | x6 |[M:5/8] x5 |] %38
V:5
 x6 | x6 | x6 | x6 |[M:5/8] x5 |[M:1/8] x |[M:3/4] x6 | x6 | x6 |[M:5/8] x5 |[M:1/8] x | %11
[M:3/4] x6 | x6 | x6 |[M:5/8] x5 |[M:1/8] x |[M:3/4] x6 | x6 | x6 |[M:5/8] x5 |[M:1/8] x | %21
[M:3/4] x6 | x6 | x6 | x6 | x5[K:treble] x | [F,C]2 z2[K:bass] z2 | x6 |[M:5/8] x5 |[M:1/8] x | %30
[M:3/4] x6 | x6 | x6 | x6 | x5[K:treble] x | [F,C]2 z2[K:bass] z2 | x6 |[M:5/8] x5 |] %38

